X:12
T:Last Night's Fun
R:slip jig
M:9/8
L:1/8
K:G
"Dm" D2 A A2 G "Am" ABc | "Dm" D2 A A2 G "C" EGE | "Dm" D2 A A2   "Am" ABc | "G" dcB cBA     "C" G2 E |
"Dm" D2 A A2 G "Am" ABc | "Dm" D2 A AGE "C" G2 E | "Dm" D2 A A2   "Am" ABc | "C" dcB cBA     "G" G2 E ||
"G"  BAB dBG    "D" ABc | "G"  B2 c dBG "C" c2 A | "G"  BAB dBG    "D" ABc | "G" BAG AGE     "C" G2 E |
"G"  BAB dBG    "D" ABc | "G"  B2 c dBG "C" c2 A | "G" def "C" gfe "G" dBA | "G" BAG "D" AGE "G" G2 E |]
